X:2901
T:Morgonstund har gull i mund
C:Chr. Barnekow, words: B. St\oylen (after N. F. S. Grundtvig)
O:Denmark
Z:Transcribed by Frank Nordberg - http://www.musicaviva.com
F:http://abc.musicaviva.com/tunes/barnekow-chr/morgonstund-har-gull/morgonstund-har-gull-1.abc
M:3/4
L:1/4
K:F
"F"A2A|"C"(c>d)c|"F"A2A|"F"c2"F7"F|"Bb"F2F|
w:Mor-gon-stund_ har gull i mund, for nat-ti
"Gm"B2A|"F/G"A3|"C"G z G|"G/B"(G>A)G|"C7"(GF)E|
w:Gud ver' lo-va, som l\aer--te oss_ i
"F"F2A|"C"G z G|"A"A2E|"Dm"(F>G)A|"Gm"B2"C"c|
w:Je-su namn at lik-som barn_ i mo-der-
"F"A2"F7"A|"Bb"d2d|"F"(c>B)A|"Gm7  C7"G3|"F"F2 z|]
w:famn me al-le s\ott_ kan so-va.
W:
W:Morgonstund har gull i mund,
W:for natti Gud ver' lova,
W:som l\aerte oss i Jesu namn
W:at liksom barn i moderfamn
W:me alle s\ott kan sova.
W:
W:Morgonstund har gull i mund;
W:me oss til arbeid skundar
W:som fuglen flyg av stad s\aa glad
W:og utkvild syng sitt morgonkvad
W:i lier og i lundar.
W:
W:
W:  From Musica Viva - http://www.musicaviva.com
W:  the Internet center for free sheet music downloads.

